FlatUX/src/svg/menu_exit.svg

<svg enable-background="new 0 0 256 256" viewBox="0 0 256 256" xmlns="http://www.w3.org/2000/svg"><path clip-rule="evenodd" d="m50.038 38.301s38.228-2.301 77.407-2.301c38.862 0 78.597 2.301 78.597 2.301 6.424 0 11.659 5.237 11.659 11.664 0 0 2.3 39.434 2.3 78.63 0 38.799-2.3 77.44-2.3 77.44 0 6.427-5.234 11.664-11.659 11.664 0 0-39.814 2.301-78.597 2.301-39.179 0-77.486-2.301-77.486-2.301-6.424 0-11.659-5.237-11.659-11.664 0 0-2.3-39.276-2.3-78.392 0-38.879 2.3-77.678 2.3-77.678.079-6.427 5.314-11.664 11.738-11.664z" fill="#7f8b8c" fill-rule="evenodd"/><path d="m160 88c-2.136 0-4.145.832-5.657 2.343l-26.343 26.344-26.343-26.343c-1.512-1.512-3.52-2.344-5.657-2.344s-4.145.832-5.657 2.343c-3.119 3.119-3.119 8.194 0 11.313l26.344 26.344-26.343 26.343c-3.119 3.119-3.119 8.194 0 11.313 1.511 1.512 3.52 2.344 5.656 2.344s4.145-.832 5.656-2.343l26.344-26.344 26.343 26.343c1.511 1.511 3.52 2.343 5.657 2.343 2.136 0 4.145-.832 5.656-2.343 3.119-3.119 3.119-8.194 0-11.313l-26.343-26.343 26.343-26.343c1.512-1.512 2.344-3.521 2.344-5.657 0-2.137-.832-4.145-2.344-5.657-1.511-1.511-3.519-2.343-5.656-2.343z" fill="#93a3a3"/><path d="m133.656 128 29.172-29.172c1.563-1.563 1.563-4.094 0-5.656-1.562-1.563-4.094-1.563-5.656 0l-29.172 29.172-29.172-29.172c-1.563-1.563-4.094-1.563-5.656 0-1.562 1.562-1.562 4.094 0 5.656l29.172 29.172-29.172 29.172c-1.562 1.563-1.562 4.094 0 5.656.781.781 1.805 1.172 2.828 1.172s2.047-.391 2.828-1.172l29.172-29.172 29.172 29.172c.781.781 1.805 1.172 2.828 1.172s2.047-.391 2.828-1.172c1.563-1.563 1.563-4.094 0-5.656z" fill="#edefef"/></svg>

<svg xmlns="http://www.w3.org/2000/svg" viewBox="0 0 256 256"><path fill="#7f8b8c" fill-rule="evenodd" d="M50.038 38.301S88.266 36 127.445 36c38.862 0 78.597 2.301 78.597 2.301 6.424 0 11.659 5.237 11.659 11.664 0 0 2.3 39.434 2.3 78.63 0 38.799-2.3 77.44-2.3 77.44 0 6.427-5.234 11.664-11.659 11.664 0 0-39.814 2.301-78.597 2.301-39.179 0-77.486-2.301-77.486-2.301-6.424 0-11.659-5.237-11.659-11.664 0 0-2.3-39.276-2.3-78.392 0-38.879 2.3-77.678 2.3-77.678.079-6.427 5.314-11.664 11.738-11.664" clip-rule="evenodd"/><path fill="#93a3a3" d="M160 88a7.95 7.95 0 0 0-5.657 2.343L128 116.687l-26.343-26.343C100.145 88.832 98.137 88 96 88s-4.145.832-5.657 2.343c-3.119 3.119-3.119 8.194 0 11.313L116.687 128l-26.343 26.343c-3.119 3.119-3.119 8.194 0 11.313C91.855 167.168 93.864 168 96 168s4.145-.832 5.656-2.343L128 139.313l26.343 26.343a7.95 7.95 0 0 0 5.657 2.343 7.95 7.95 0 0 0 5.656-2.343c3.119-3.119 3.119-8.194 0-11.313L139.313 128l26.343-26.343A7.95 7.95 0 0 0 168 96a7.95 7.95 0 0 0-2.344-5.657A7.95 7.95 0 0 0 160 88"/><path fill="#edefef" d="m133.656 128 29.172-29.172a3.997 3.997 0 0 0 0-5.656 3.997 3.997 0 0 0-5.656 0L128 122.344 98.828 93.172a4 4 0 1 0-5.656 5.656L122.344 128l-29.172 29.172a4 4 0 1 0 5.656 5.656L128 133.656l29.172 29.172c.781.781 1.805 1.172 2.828 1.172s2.047-.391 2.828-1.172a3.997 3.997 0 0 0 0-5.656z"/></svg>
